!! 00000] TT[WS
!!!OTL: Mai bianshi
!!!ARE: Asia, China,ÿShanxi Mengxian
!! Ethnic Group: Han
!! WI, 76 (1)
!!!SCT: J0092
!!!YEM: Copyright 1995, estate of Helmut Schaffrath.
**kern
*ICvox
*Ivox
*M2/4
*k[b-]
*F:
{8cc
16ff
16dd
8cc
8g
=1
8cc
16ff
16dd
8cc
8g
=2
8f
16f
16g
8ff
16ff
16dd
=3
8cc
8f
4a}
=4
{8ff
16ff
16ee
8dd
8cc
=5
16b-
16cc
16b-
16cc
4e
=6
8g
16g
16a
8f
8e
=7
8c
8B-
4c}
==
!!!AGN: Xiaodiao. Laodong, Maimai
!!!ONB: ESAC (Essen Associative Code) Database: CHINA
!!!AMT: simple duple
!!!AIN: vox
!!!EED: Helmut Schaffrath
!!!EEV: 1.0
*-
